X: 31
T:The Red Crow
R:reel
C:Mair\'ead Ni Mhaonaigh
S:Altan, The Red Crow.
Z:Transcribed by Charles and Mary Ann de Lint
Z:Added by Alf Warnock
M:4/4
L:1/8
K:G
G,|:A,2EA, B,G,G,B,|A,2EG FDEG|AGED EA,A,D|ECDC B,G,G,B,|
A,2EA, B,G,G,B,|A,2EG FDEG|AGED EA,CE|[1 DB,G,B, A,3G,:|[2 DB,G,B, A,3G|
|:A2eA ceAc|eAce dcBA|G2dc BdGB|dGBd edcB|[1 A2eA ceAc|
eAcb ageg|agec dfed|cABG A3G:|[2 A2aA gAfA|A2cA BAGB|
cABG AGED|ECDC B,A,G,B,||A,4|

